src/icons/scale-up.svg

<?xml version="1.0" encoding="UTF-8"?>
<svg xmlns="http://www.w3.org/2000/svg" xmlns:xlink="http://www.w3.org/1999/xlink" width="32" height="32" viewBox="0 0 32 32" version="1.1">
<g id="surface1">
<path style=" stroke:none;fill-rule:nonzero;fill:rgb(25.098041%,25.098041%,25.490198%);fill-opacity:1;" d="M 26.722656 0 L 5.753906 0 C 2.84375 0.00390625 0.484375 2.363281 0.476562 5.273438 L 0.476562 13.621094 C 0.832031 13.390625 1.222656 13.21875 1.628906 13.109375 C 1.984375 13.011719 2.351562 12.964844 2.71875 12.964844 L 14.863281 12.964844 C 15.722656 12.964844 16.519531 13.226562 17.183594 13.671875 L 23.542969 7.308594 L 21.402344 5.167969 L 26.800781 5.167969 L 26.800781 10.566406 L 24.65625 8.421875 L 18.300781 14.777344 C 18.777344 15.472656 19.035156 16.292969 19.035156 17.136719 L 19.035156 29.28125 C 19.035156 29.648438 18.984375 30.015625 18.890625 30.371094 C 18.839844 30.566406 18.769531 30.761719 18.6875 30.945312 C 18.601562 31.144531 18.496094 31.339844 18.378906 31.523438 L 26.726562 31.523438 C 29.636719 31.515625 31.996094 29.15625 32.003906 26.246094 L 32.003906 5.273438 C 31.996094 2.363281 29.632812 0.00390625 26.722656 0 M 14.863281 14.414062 L 2.722656 14.414062 C 2.335938 14.414062 1.964844 14.496094 1.632812 14.644531 C 1.167969 14.84375 0.765625 15.175781 0.480469 15.59375 C 0.175781 16.035156 0 16.566406 0 17.136719 L 0 29.277344 C 0 30.78125 1.21875 32 2.722656 32 L 14.863281 32 C 15.414062 32 15.953125 31.832031 16.40625 31.519531 C 16.828125 31.234375 17.15625 30.835938 17.355469 30.367188 C 17.503906 30.035156 17.585938 29.664062 17.585938 29.277344 L 17.585938 17.136719 C 17.585938 15.632812 16.367188 14.414062 14.863281 14.414062 M 14.863281 14.414062 "/>
</g>
</svg>

<svg role="img" viewBox="0 0 32 32" xmlns="http://www.w3.org/2000/svg"><path d="M26.723 0H5.753A5.282 5.282 0 0 0 .478 5.273v8.348a4.105 4.105 0 0 1 1.152-.512 4.191 4.191 0 0 1 1.09-.144h12.144c.86 0 1.657.262 2.32.707l6.36-6.363-2.14-2.141H26.8v5.398l-2.145-2.144-6.355 6.355a4.16 4.16 0 0 1 .734 2.36V29.28a4.2 4.2 0 0 1-.144 1.09c-.051.195-.121.39-.203.574a3.9 3.9 0 0 1-.31.578h8.349a5.286 5.286 0 0 0 5.277-5.277V5.273A5.288 5.288 0 0 0 26.723 0m-11.86 14.414H2.723c-.387 0-.758.082-1.09.23a2.676 2.676 0 0 0-1.153.95c-.304.441-.48.972-.48 1.543v12.14A2.722 2.722 0 0 0 2.723 32h12.14a2.71 2.71 0 0 0 1.543-.48 2.657 2.657 0 0 0 .95-1.153c.148-.332.23-.703.23-1.09v-12.14a2.722 2.722 0 0 0-2.723-2.723m0 0" style="stroke:none;fill-rule:nonzero;fill:rgb(25.098041%,25.098041%,25.490198%);fill-opacity:1"/></svg>
